symbolic/mimes/text-x-c++src-symbolic.svg

<svg width="16px" height="16px" version="1.1" viewBox="0 0 16 16" xmlns="http://www.w3.org/2000/svg">
 <path d="m3 5v3h-3v1h3v3h1v-3h3v-1h-3v-3zm9 0v3h-3v1h3v3h1v-3h3v-1h-3v-3z" fill="gray"/>
</svg>

<svg xmlns="http://www.w3.org/2000/svg" width="16" height="16" viewBox="0 0 16 16"><path fill="gray" d="M3 5v3H0v1h3v3h1V9h3V8H4V5zm9 0v3H9v1h3v3h1V9h3V8h-3V5z"/></svg>
